X: 1
T: Pathway To The Well, The
M: 6/8
L: 1/8
R: jig
K: Dmaj
D2F AFF|BFF AFE|D2F AGF|E2F GFE|
D2F AFF|BFF A2c|dcd efg|1fdc dAF:|2fdc d2A||
dcd fed|afd fed|B2g ~g3|B2g gfe|
dcd fed|afd fed|dcB AGF|ABc d2A|
dcd fed|afd fed|B2g ~g3|B2g gfe|
~f3 ~g3|agf gfe|fed cAG|ABc dAF|
